X: 101
T: King Of The Fairies
B: begged borrowed and stolen
B: ralph
B: steve tunes
M:4/4
R: hornpipe
Q: 1/4=100
K:Dmixolydian
V:1 
B2|:"Em"EDEF GFGA|B2 B2 "G"G3 A|"Em"B2 E2 EFGE|"D"FGFE D3 B|
 "Em"EDEF GFGA|BAGB "G"d3 c|"Em"B2 E2 "D"GFED|1"Em"E2 ED E2 B2:|2"Em"E2 ED E2 B2||
|: "Em"e2 e2 Bdef|"G"gagf "Em"e3 f|e2 B2 BAB^c|"D"ded^c BcdB|
 "Em"e2 e2 Bdef|"G"gagf "Em"efed|Bdeg "D"fedf|"Em"e2 ed e3 f|
 "G"g2 ge "D"f2 fd|"Em"edB^c"D"d3 e|"Em"dBAF "G"GAB^c|"D"dBAF "Em"GFED|
 B2 E2 EFGA|"G"B2 e2 "Em"edef|e2 B2 "D"BAGF|"Em"E2 ED E4:|
% abcbook-tune_id 627e2b1f09d1469e67c43196


% abcbook-boost 0
% abcbook-tablature 
% abcbook-transpose 
% abcbook-lastupdated 1665481940391
% abcbook-soundfonts 
% abcbook-repeats 3


